X:9189
%9350
T:Latee Quadrill. BF13.057
T:L'Ete Quadrille. BF13.057
M:2/4
Q:1/4=80
S:J.Lishman(?)MS,c1825,Lakes,Browne Coll.
R:Quadrille
O:England
A:Lakes
N:At NB it says "Miss" above the stave..CGP
Z:vmp.Chris Partington
K:Cmaj
"DS WRITTEN"Gc BG|AAG2
%Error : Bar 1 is 1/4 not 2/4
|FA EG
%Error : Bar 2 is 1/4 not 2/4
|DF EC
%Error : Bar 3 is 1/4 not 2/4
|Gc BG
%Error : Bar 4 is 1/4 not 2/4
|AAG2
%Error : Bar 5 is 1/4 not 2/4
|FGAE EG FDC2
%Error : Bar 6 is 5/8 not 2/4
||!
EA AGFE
%Error : Bar 7 is 3/8 not 2/4
|ABcd BA
%Error : Bar 8 is 3/8 not 2/4
|eec
%Error : Bar 9 is 3/16 not 2/4
|ddB2
%Error : Bar 10 is 1/4 not 2/4
|"NB"d/2c/2B/2c/2 AB
%Error : Bar 11 is 1/4 not 2/4
|B^GA2
%Error : Bar 12 is 1/4 not 2/4
||!
D,
%Error : Bar 13 is 1/16 not 2/4
|G,2B,2
%Error : Bar 14 is 1/4 not 2/4
|A,CA,F,
%Error : Bar 15 is 1/4 not 2/4
|G,B,A,F,
%Error : Bar 16 is 1/4 not 2/4
|B,F,D,2
%Error : Bar 17 is 1/4 not 2/4
|G,2B,2
%Error : Bar 18 is 1/4 not 2/4
|A,CA,F,
%Error : Bar 19 is 1/4 not 2/4
|G,2B,2A,2F,2|G,G,G,2
%Error : Bar 21 is 1/4 not 2/4
||!
"NB"cc/2GE2
%Error : Bar 22 is 9/32 not 2/4
|e/2e/2c2
%Error : Bar 23 is 3/16 not 2/4
|ddB2
%Error : Bar 24 is 1/4 not 2/4
||!

%Error : Malformed note : expecting a-g or A-G
A,G,ITA,G, VA,SION

%Error : Guitar chord name not properly closed

%Error : guitar chord contains too much text
"gg bbd|eed2|ce Ed|Ac EG|dg bbd|eed2|c/g/a/E/ Ed| "
EA A/2G/2F/2E/2
%Error : Bar 25 is 9/16 not 2/4
|A/2B/2c/2d/2 BA
%Error : Bar 26 is 1/4 not 2/4
|eec2
%Error : Bar 27 is 1/4 not 2/4
|ddB2
%Error : Bar 28 is 1/4 not 2/4
|"NB"d/2c/2B/2c/2 AB
%Error : Bar 29 is 1/4 not 2/4
|B^GA2
%Error : Bar 30 is 1/4 not 2/4
||!
D,
%Error : Bar 31 is 1/16 not 2/4
|G,2B,2
%Error : Bar 32 is 1/4 not 2/4
|A,CA,F,
%Error : Bar 33 is 1/4 not 2/4
|G,B,A,F,
%Error : Bar 34 is 1/4 not 2/4
|B,F,D,2
%Error : Bar 35 is 1/4 not 2/4
|G,2B,2
%Error : Bar 36 is 1/4 not 2/4
|A,CA,F,
%Error : Bar 37 is 1/4 not 2/4
|G,B,A,F,
%Error : Bar 38 is 1/4 not 2/4
|G,G,G,2
%Error : Bar 39 is 1/4 not 2/4
||!
"NB"cc/2GE2
%Error : Bar 40 is 9/32 not 2/4
|e/2e/2c2
%Error : Bar 41 is 3/16 not 2/4
|ddB2
%Error : Bar 42 is 1/4 not 2/4
||!


